X:4
T:De Engelse
O:Kapellen
O:Vlaanderen
B:Lange Wappers Dansboekskens
B:Muziek II
M:C
L:1/8
Q:1/4=120
P:ABCABCA
P:A
K:C
CC/C/ CC DD/D/ DD | EE/E/ EE FA c2 | CC/C/ CC DD/D/ DD |1 EE/E/ EE F2 z2 :|2 EE/E/ EE F2 z F/G/ |
P:B
K:F
A/G/F/G/ A/G/F/G/ AA AF/G/ | A/G/F/G/ A/G/F/G/ EE EF/G/ |
A/G/F/G/ A/G/F/G/ AA AF | AG/F/ EF/G/ F z z E/F/ |
P:C
K:C
G/F/E/F/ G/F/E/F/ Gc cE/F/ | G/F/E/F/ G/F/E/F/ DD DE/F/ |
G/F/E/F/ G/F/E/F/ Gc cE | GF/E/ DE/D/ C z z ||
